src/16/panel/btsync-gui-10.svg

<svg xmlns="http://www.w3.org/2000/svg" width="16" height="16" version="1.1">
 <defs>
  <style id="current-color-scheme" type="text/css">
   .ColorScheme-Text { color:#dfdfdf; } .ColorScheme-Highlight { color:#4285f4; }
  </style>
 </defs>
 <path style="fill:currentColor" class="ColorScheme-Text" d="M 14.062177,11.499999 C 15.995052,8.1521625 14.847838,3.8706976 11.5,1.9378224 8.1521623,0.00494737 3.8706964,1.1521626 1.9378219,4.5000001 c -1.93287439,3.347838 -0.78566,7.6293039 2.5621792,9.5621779 3.3478365,1.932875 7.6293019,0.78566 9.5621759,-2.562179 z M 12.330127,10.5 c -1.209502,2.094918 -3.7061534,2.983854 -5.9142982,2.243863 L 5.8660268,13.696151 4.2679486,10.464102 7.866025,10.232051 7.4578222,10.939079 c 1.21358,0.223627 2.4879984,-0.309339 3.1402538,-1.4390784 0.355667,-0.6185461 0.479229,-1.3436074 0.34851,-2.0450418 L 12.736873,6.4204952 C 13.190649,7.7759565 13.0426,9.2608192 12.330127,10.5 Z M 11.732051,5.5358987 8.1339746,5.7679496 8.5421775,5.0609205 C 7.3285969,4.8372941 6.0541793,5.3702608 5.4019229,6.5000003 5.0462597,7.1185472 4.9226946,7.8436074 5.053413,8.5450431 L 3.2631269,9.5795055 C 2.8093508,8.2240438 2.9574261,6.7391963 3.6698729,5.5000004 4.8793738,3.4050814 7.3760261,2.5161469 9.5841692,3.2561369 l 0.5498048,-0.9522888 1.598077,3.2320506 z"/>
</svg>

<svg xmlns="http://www.w3.org/2000/svg" width="16" height="16"><defs><style id="current-color-scheme" type="text/css">.ColorScheme-Text{color:#dfdfdf;}.ColorScheme-Highlight{color:#5294e2;}</style></defs><defs><style id="current-color-scheme" type="text/css"></style></defs><path d="M14.062 11.5a7 7 0 1 0-12.125-7 7 7 0 0 0 12.125 7zm-1.732-1a5.002 5.002 0 0 1-5.914 2.244l-.55.952-1.598-3.232 3.598-.232-.408.707a2.99 2.99 0 0 0 3.14-1.439 3 3 0 0 0 .349-2.045l1.79-1.035a5 5 0 0 1-.407 4.08zm-.598-4.964l-3.598.232.408-.707A2.99 2.99 0 0 0 5.402 6.5a3 3 0 0 0-.349 2.045L3.263 9.58A5 5 0 0 1 3.67 5.5a5.002 5.002 0 0 1 5.914-2.244l.55-.952 1.598 3.232z" fill="currentColor" class="ColorScheme-Text"/></svg>
